X: 12639
T: Farmer Killed His Ox Today, The
R: reel
M: 4/4
K: Gmajor
|:B2 BA BFFA|Bdef gfed|ABBA BEEF|GBAF GEEA:|
Bdef gfeg|fedf edBA|Bdef gbge|fafd e2 ed|
Bdef gfeg|fedf efge|ABBA BEEF|GBAF GEE2|

